X:1
T: The Highlander's Knee Buckle
C:
R:Reel
Q: 232
K:D
M:4/4
L:1/8
|:dc|BE E2 GA FB|AF dF DE FG|BE E2 BA FB|AF dF E2 dc|
BE E2 GA FB|AF dF DE FG|BE E2 BA FB|AF dF E2 FE|
DF AB d2 cB|Bd Ac Bc AF|DF AB de fe|dB AF E2 FE|
DF AB d2 cB|Bd Ac Bc Ag|fd ec dc BA|((3Bcd) AF D2:|
